X:784
T:Peggy Menzies
R:Reel
B:The Athole Collection
M:C|
L:1/8
K:C
f|~g2 dg Bgdg|~g2 dB A2 AB|~g2 dg gaba|gedB A2A:|
|:B|dGdB dGdg|dGdB A2AB|dGdB gaba|gedB A2A:|

